src/images/mesh-icon/image_empty_space.svg

<svg height="103" viewBox="0 0 96 103" width="96" xmlns="http://www.w3.org/2000/svg" xmlns:xlink="http://www.w3.org/1999/xlink"><linearGradient id="a" x1="82.812012%" x2="27.818114%" y1="39.46871%" y2="77.745825%"><stop offset="0" stop-color="#eff4f9" stop-opacity="0"/><stop offset="1" stop-color="#7f899c" stop-opacity=".732982"/></linearGradient><g fill="none" fill-rule="evenodd"><g transform="translate(16 35)"><path d="m32 68 48-8v-34l-48 28z" fill="url(#a)"/><path d="m0 13.9833465 32 13.9833465v40.033307l-32-13.9833465z" fill="#e1e5eb"/><path d="m32 0 32 13.9833465-32 13.9833465-32-13.9833465z" fill="#ebeff6"/><path d="m32 13.9833465 32 13.9833465v40.033307l-32-13.9833465z" fill="#b9c1cd" transform="matrix(-1 0 0 1 96 0)"/></g><g transform="translate(32)"><path d="m16 49c10.6666667-15.442296 16-26.442296 16-33 0-9.836556-7.163444-16-16-16s-16 6.163444-16 16c0 6.557704 5.33333333 17.557704 16 33z" fill="#b9c1cd" opacity=".3"/><path d="m9.99997181 1c4.97068489 0 9.00002819 4.02946001 9.00002819 9 0 4.97054-4.0293809 9-9.00004698 9-4.97057212 0-8.99995302-4.02946-8.99995302-9.00002819 0-4.97054939 4.0293997-8.99997181 8.99997181-8.99997181zm.70224689 7.43984811h-1.34999299c-.24858499 0-.44999765.20152375-.44999765.45005028v6.30338331c0 .2486017.20143145.4500691.44999765.4500691h1.34999299c.248491 0 .44996-.2014862.44996-.4500691v-6.30340211c0-.24852653-.2014878-.45003148-.44996-.45003148zm0-4.0664162h-1.34999299c-.24858499 0-.44999765.20152374-.44999765.45005027v1.34994409c0 .24860171.20143145.45006907.44999765.45006907h1.34999299c.248491 0 .44996-.20148616.44996-.45006907v-1.34996288c0-.24852653-.2014878-.45003148-.44996-.45003148z" fill="#b6c2cd" fill-rule="nonzero" transform="translate(6 6)"/></g></g></svg>

<?xml version="1.0" encoding="UTF-8"?>
<svg width="96px" height="103px" viewBox="0 0 96 103" version="1.1" xmlns="http://www.w3.org/2000/svg" xmlns:xlink="http://www.w3.org/1999/xlink">
    <title>image_empty_space</title>
    <defs>
        <linearGradient x1="82.8120124%" y1="39.4687102%" x2="27.8181138%" y2="77.7458245%" id="linearGradient-1">
            <stop stop-color="#EFF4F9" stop-opacity="0" offset="0%"></stop>
            <stop stop-color="#7F899C" stop-opacity="0.732981862" offset="100%"></stop>
        </linearGradient>
    </defs>
    <g id="Dashboard" stroke="none" stroke-width="1" fill="none" fill-rule="evenodd">
        <g id="02-开发环境-创建环境-创建共享开发环境-第一步填充态-未选择基础开发空间" transform="translate(-980.000000, -508.000000)">
            <g id="创建共享开发环境" transform="translate(244.000000, 104.000000)">
                <g id="Right" transform="translate(420.000000, 0.000000)">
                    <g id="集群" transform="translate(0.000000, 126.000000)">
                        <g id="编组-17" transform="translate(24.000000, 64.000000)">
                            <g id="编组-14" transform="translate(16.000000, 64.000000)">
                                <g id="编组-12" transform="translate(276.000000, 150.000000)">
                                    <g id="编组-7" transform="translate(16.000000, 35.000000)">
                                        <polygon id="路径-2" fill="url(#linearGradient-1)" points="32 68 80 60 80 26 32 54"></polygon>
                                        <g id="编组-6" transform="translate(0.000000, -0.000000)">
                                            <polygon id="矩形" fill="#E1E5EB" points="0 13.9833465 32 27.966693 32 68 0 54.0166535"></polygon>
                                            <polygon id="矩形备份-6" fill="#EBEFF6" points="32 -1.65165254e-12 64 13.9833465 32 27.966693 0 13.9833465"></polygon>
                                            <polygon id="矩形" fill="#B9C1CD" transform="translate(48.000000, 40.991673) scale(-1, 1) translate(-48.000000, -40.991673) " points="32 13.9833465 64 27.966693 64 68 32 54.0166535"></polygon>
                                        </g>
                                    </g>
                                    <g id="编组-25" transform="translate(32.000000, 0.000000)">
                                        <path d="M16,49 C26.6666667,33.557704 32,22.557704 32,16 C32,6.163444 24.836556,0 16,0 C7.163444,0 0,6.163444 0,16 C0,22.557704 5.33333333,33.557704 16,49 Z" id="椭圆形" fill="#B9C1CD" opacity="0.3"></path>
                                        <g id="疑问备份" transform="translate(6.000000, 6.000000)" fill="#B6C2CD" fill-rule="nonzero">
                                            <path d="M9.99997181,1 C14.9706567,1 19,5.02946001 19,10 C19,14.97054 14.9706191,19 9.99995302,19 C5.0293809,19 1,14.97054 1,9.99997181 C1,5.02942242 5.0293997,1 9.99997181,1 Z M10.7022187,8.43984811 L9.35222571,8.43984811 C9.10364072,8.43984811 8.90222806,8.64137186 8.90222806,8.88989839 L8.90222806,8.88989839 L8.90222806,15.1932817 C8.90222806,15.4418834 9.10365951,15.6433508 9.35222571,15.6433508 L9.35222571,15.6433508 L10.7022187,15.6433508 C10.9507097,15.6433508 11.1521787,15.4418646 11.1521787,15.1932817 L11.1521787,15.1932817 L11.1521787,8.88987959 C11.1521787,8.64135306 10.9506909,8.43984811 10.7022187,8.43984811 L10.7022187,8.43984811 Z M10.7022187,4.37343191 L9.35222571,4.37343191 C9.10364072,4.37343191 8.90222806,4.57495565 8.90222806,4.82348218 L8.90222806,4.82348218 L8.90222806,6.17342627 C8.90222806,6.42202798 9.10365951,6.62349534 9.35222571,6.62349534 L9.35222571,6.62349534 L10.7022187,6.62349534 C10.9507097,6.62349534 11.1521787,6.42200918 11.1521787,6.17342627 L11.1521787,6.17342627 L11.1521787,4.82346339 C11.1521787,4.57493686 10.9506909,4.37343191 10.7022187,4.37343191 L10.7022187,4.37343191 Z" id="形状结合"></path>
                                        </g>
                                    </g>
                                </g>
                            </g>
                        </g>
                    </g>
                </g>
            </g>
        </g>
    </g>
</svg>
